X: 17413
T: Highest Hill In Sligo, The
R: reel
M: 4/4
K: Dmajor
FDAF G2 EG|FEFD CDEG|FDFA dfaf|gfed cBAG|
FdAF (3GAG EG|FEFD CDEG|FAdf ecdB|1 AF G/F/E D3 E:|2 AGFE D3 z||
fgaf dfaf|~g3a bgeg|fgaf dfaf|gbeg fddA|
dfaf bfaf|gfed cBAG|FAdf ecdB|1 AF G/F/E D3 z:|2 AF G/F/E D3 E||

